!!!OTL: Der heimkehrende Soldat ohne Text
!!!ARE: Suedeuropa, Italia
!!!YOR: 5, S. 160
!!    1774 gedruckt in Rom
!!!SCT: Q3103E
!!!YEM: Copyright 1995, estate of Helmut Schaffrath.
**kern
*ICvox
*Ivox
*M2/4
*k[f#]
*G:
{8d
=1
8.g
16g
8.g
16b
=2
8.b
16a
8.a
16dd
=3
4b
8r}
{8d
=4
8.g
16g
8.g
16b
=5
8.b
16a
8.a
16dd
=6
4b
8r}
{8b
=7
8.b
16dd
8.dd
16dd
=8
8.dd
16cc
4cc}
=9
{8.b
16b
8.b
32cc
32dd
=10
8.a
16a
8.a}
{16dd
=11
8.b
16b
8.a
32g
32a
=12
4g
8r}
==
!!!AGN: Tanz, Tedesca
!! Melodievergleich zu Q0103A, anderes Lied.
!!!ONB: ESAC (Essen Associative Code) Database: BALLADE
!!!AMT: simple duple
!!!AIN: vox
!!!EED: Helmut Schaffrath
!!!EEV: 1.0
*-
